X: 1
T: Karago\'una    [Cm]
O: Thessaly
M: C|
L: 1/8
Q: 1/2=60
K: Cdor
z2 "vocal"\
|:\
"Cm"C2C2 (DE)^F2 | G6 ^F2 |\
G2G2 ^F2G2 | ^F4 (ED)C2 |\
"Cm"C2C2 "(C)"(DE)=E2 | "Fm"F6 E2 |
"G"G2G2 ^F2([GE]D) | "Cm"C4 C2 :|\
|: E2 |\
(ED)C2 z2E2 | (ED)C2 z2E2 |\
"G"G2G2 ^F2G2 | "Cm"(ED)C2 z2 :|
Q:1/2=88
z2"instr"\
|: "Cm"cBAG ^FGAB | cBAG ^FEDC |\
[1 cBAG ^FGAB | c2cG c4 :|\
[2 =B,CDE ^FGED | "Cm"CG,"G7"A,=B,"Cm"C2 |]

%%sep 1 1 500

